X:1
T:Prayer (Marshall), SM
T:Prayer (Marshall), SM
T:Leonard Marshall, 1861
T:Public Domain Courtesy of the Cyber Hymnal™
C:Leonard Marshall, 1861
Z:Public Domain
Z:Courtesy of the Cyber Hymnal™
%%score 1 ( 2 3 )
L:1/8
Q:1/4=130
M:2/4
K:D
V:1 treble 
V:2 bass 
V:3 bass 
V:1
 [DA]4 [CG]2 [DF]2 | [EA]4 [DF]4 | [CE]8 | [DF]4 [DF]2 [CE]2 | [B,D]4 [CE]4 | [DF]8 | %6
 [EG]4 [EG]2 [EG]2 | [DF]6 [DA]2 | [DB]4 [D^G]4 | [CA]8 | [DA]4 [CG]2 [DF]2 | [DE]4 [CA]4 | %12
 [DF]8 |] %13
V:2
 [F,A,]4 [E,A,]2 [D,A,]2 | [C,A,]4 [D,A,]4 | [A,,A,]8 | [D,A,]4 [D,A,]2 [A,,G,]2 | %4
 (F,2 ^G,2) [A,,A,]4 | [D,A,]8 | [C,A,]4 [C,A,]2 [C,A,]2 | [D,A,]6 [F,A,]2 | G,4 [E,B,]4 | %9
 [A,,A,]8 | [F,A,]4 [E,A,]2 [D,A,]2 | [G,,B,]4 [A,,A,]4 | [D,A,]8 |] %13
V:3
 x8 | x8 | x8 | x8 | B,,4 x4 | x8 | x8 | x8 | G,4 x4 | x8 | x8 | x8 | x8 |] %13

